build/finance/CashboxOutline.svg

<svg xmlns="http://www.w3.org/2000/svg" fill="none" viewBox="0 0 24 24" focusable="false"><path d="M0 0H24V24H0z"/><path fill="#74767B" fill-rule="evenodd" d="M11.0002 4.36636C11.0002 3.62077 11.6047 3.01636 12.3502 3.01636L17.6498 3.01636C18.3953 3.01636 18.9998 3.62077 18.9998 4.36636L18.9998 5.64707C18.9998 6.39265 18.3953 6.99707 17.6498 6.99707L15.65 6.99707L15.65 8.7157L16.18 8.71571C17.1412 8.71571 17.959 9.41603 18.1068 10.3657L18.7513 14.5051C19.4911 14.7821 20.0177 15.4955 20.0177 16.332L20.0177 18.0325C20.0177 19.1095 19.1447 19.9825 18.0677 19.9825L5.9323 19.9825C4.85535 19.9825 3.9823 19.1095 3.9823 18.0325L3.9823 16.332C3.9823 15.4955 4.50892 14.7821 5.24869 14.5051L5.89319 10.3657C6.04105 9.41603 6.85884 8.71571 7.81997 8.71571L14.35 8.71571C14.35 8.71571 14.35 8.71571 14.35 8.7157L14.35 6.99707L12.3502 6.99707C11.6047 6.99707 11.0002 6.39265 11.0002 5.64707L11.0002 4.36636ZM12.3502 4.31636C12.3226 4.31636 12.3002 4.33874 12.3002 4.36636L12.3002 5.64707C12.3002 5.67468 12.3226 5.69707 12.3502 5.69707L17.6498 5.69707C17.6774 5.69707 17.6998 5.67468 17.6998 5.64707L17.6998 4.36636C17.6998 4.33874 17.6774 4.31636 17.6498 4.31636L12.3502 4.31636ZM5.9323 15.682L18.0677 15.682C18.4267 15.682 18.7177 15.973 18.7177 16.332L18.7177 18.0325C18.7177 18.3915 18.4267 18.6825 18.0677 18.6825L5.9323 18.6825C5.57332 18.6825 5.2823 18.3915 5.2823 18.0325L5.2823 16.332C5.2823 15.973 5.57331 15.682 5.9323 15.682ZM16.8223 10.5657L17.4165 14.382L6.58353 14.382L7.17771 10.5657C7.227 10.2492 7.4996 10.0157 7.81997 10.0157L16.18 10.0157C16.5004 10.0157 16.773 10.2491 16.8223 10.5657ZM8.84629 11.2978C8.48731 11.2978 8.19629 11.5888 8.19629 11.9478C8.19629 12.3068 8.48731 12.5978 8.84629 12.5978L11.9612 12.5978C12.3201 12.5978 12.6112 12.3068 12.6112 11.9478C12.6112 11.5888 12.3201 11.2978 11.9612 11.2978L8.84629 11.2978Z"/></svg>

<svg xmlns="http://www.w3.org/2000/svg" fill="none" viewBox="0 0 24 24" focusable="false"><path fill="#74767B" fill-rule="evenodd" d="M11 4.36c0-.74.6-1.35 1.35-1.35h5.29c.75 0 1.35.61 1.35 1.35v1.28c0 .75-.6 1.35-1.35 1.35h-1.99v1.72h.53c.96 0 1.77.7 1.92 1.65l.65 4.14c.74.28 1.26.99 1.26 1.83v1.7c0 1.07-.87 1.95-1.95 1.95H5.93c-1.08 0-1.95-.88-1.95-1.95v-1.7c0-.84.52-1.55 1.26-1.83l.65-4.14c.15-.95.96-1.65 1.92-1.65h6.54V6.99h-2c-.75 0-1.35-.6-1.35-1.35zm1.35-.05c-.03 0-.05.02-.05.05v1.28c0 .03.02.05.05.05h5.29c.03 0 .05-.02.05-.05V4.36c0-.03-.02-.05-.05-.05zM5.93 15.68h12.13c.36 0 .65.29.65.65v1.7c0 .36-.29.65-.65.65H5.93c-.36 0-.65-.29-.65-.65v-1.7c0-.36.29-.65.65-.65m10.89-5.12.59 3.82H6.58l.59-3.82c.05-.32.32-.55.64-.55h8.37c.32 0 .59.23.64.55m-7.98.73c-.36 0-.65.29-.65.65s.29.65.65.65h3.12c.36 0 .65-.29.65-.65s-.29-.65-.65-.65z"/></svg>
